X:1
T:Little B's Poem
T:Little B's Poem
T:Bobby Hutcherson
C:Bobby Hutcherson
Z:All Rights Reserved
L:1/8
M:3/4
K:C
V:1 treble 
%%MIDI program 4
V:1
"Am7" a4- ag |"Gm7" a4- ag |"Am7" a2 d'2 c'2 |"Dm7" a4 c'f |"Gm7" g4- gf |"Fm7" g4- gf | %6
"Gm7" g2 c'2 a2 |"Em7b5" g4"A7" ad |"Dm7" f4 df |"Ebm7" _g2 _d'2"Ab7" c'2 |"Dbmaj7" f4 _e_d | %11
"Dm7" f2 c'2"G7" b2 |"Cmaj7" e4 dc |"C#m7" e4 ^ge |"Amaj7" ^G2"Bm7" A2"C#m7" B2 | %15
"Dm7" c2"Em7" d2"Gm7" f2 |] %16

